svg/u1f510.svg

<svg viewBox="0 0 128 128" xmlns="http://www.w3.org/2000/svg">
  <defs>
    <radialGradient id="SVGID_2_" cx="-54.832331" cy="145.819187" gradientTransform="matrix(-0.077 -0.997 0.4971 -0.0384 0 0)" gradientUnits="userSpaceOnUse" r="37.7164">
      <stop offset="0.1561" stop-color="#3D8192"/>
      <stop offset="0.2773" stop-color="#3D8192"/>
    </radialGradient>
    <linearGradient id="SVGID_1_" gradientUnits="userSpaceOnUse" x1="89.1768" x2="78.997" y1="84.4293" y2="84.4293">
      <stop offset="0" stop-color="#9E740B"/>
      <stop offset="0.3063" stop-color="#9E740B" stop-opacity="0.963"/>
    </linearGradient>
  </defs>
  <path d="M85.86,62.7 L85.85,62.7 C85.73,60.25 83.13,57.96 78.64,56.61 C69.03,53.72 58.37,52.03 46.21,51.93 C34.06,52.03 23.4,53.72 13.78,56.61 C9.29,57.96 6.71,60.25 6.58,62.7 L6.57,62.7 L6.57,63.02 C6.57,63.04 6.57,63.05 6.57,63.07 L6.57,112.78 C6.57,115.57 9.59,118.58 16.83,120.63 C24.31,122.75 34.43,124.12 46.21,124.12 C57.99,124.12 68.11,122.75 75.59,120.63 C83.18,118.48 85.98,115.31 85.86,112.38 L85.86,112.38 L85.86,62.7 Z" fill="#E2A610"/>
  <path d="M85.85,62.7 C85.73,60.25 83.13,57.96 78.64,56.61 C69.03,53.72 89.93,66.08 77.78,65.98 C77.78,65.98 77.46,91.11 77.78,104.41 C77.99,113.23 85.9,113.13 85.86,112.37 L85.86,62.7 L85.85,62.7 Z" fill="url(#SVGID_1_)"/>
  <path d="M54.11,108.24 L49.62,97.66 C52.18,96.42 53.95,93.8 53.95,90.76 C53.95,86.52 50.51,83.09 46.28,83.09 C42.05,83.09 38.61,86.53 38.61,90.76 C38.61,93.61 40.17,96.1 42.48,97.42 L38.3,108.31 C37.77,109.69 38.79,111.16 40.26,111.16 L52.18,111.16 C53.68,111.16 54.7,109.62 54.11,108.24 Z" fill="#4E342E"/>
  <path d="M53.69,107.26 L38.7,107.26 L38.3,108.31 C37.77,109.69 38.79,111.16 40.26,111.16 L52.18,111.16 C53.69,111.16 54.7,109.62 54.11,108.24 L53.69,107.26 Z" fill="#9E740B"/>
  <path d="M43.16,95.4 C43.34,94.88 43.15,94.32 42.71,94 C42.11,93.56 41.3,92.78 40.79,91.54 C38.93,87.06 41.14,85.07 41.14,85.07 C39.58,86.47 38.6,88.5 38.6,90.76 C38.6,93.61 40.16,96.1 42.47,97.42 L43.16,95.4 Z" fill="#9E740B"/>
  <path d="M51.67,85.3 C51.67,85.3 53.87,89.72 51.35,92.55 C50.49,93.51 49.76,94.02 49.22,94.27 C48.69,94.52 48.45,95.15 48.7,95.68 L49.63,97.64 C52.19,96.4 53.96,93.78 53.96,90.74 C53.95,87.49 51.67,85.3 51.67,85.3 Z" fill="#9E740B"/>
  <path d="M76.96,55.95 C67.84,53.31 57.74,51.76 46.22,51.67 C34.7,51.76 24.59,53.31 15.48,55.95 C6.35,58.6 5.44,65.21 18.37,68.75 C25.46,70.69 35.06,71.94 46.22,71.94 C57.38,71.94 66.98,70.69 74.07,68.75 C87,65.21 86.09,58.59 76.96,55.95 Z" fill="#FDD835"/>
  <path d="M74.37,62.21 C74.37,62.21 74,63.93 69.15,63.93 C64.3,63.93 63.27,62.21 63.27,62.21 L63.27,40.16 C63.27,30.14 55.62,22 46.21,22 C36.8,22 29.15,30.15 29.15,40.16 L29.15,62.22 C29.15,62.22 27.04,63.94 23.2,63.94 C19.36,63.94 18.06,62.22 18.06,62.22 L18.06,40.16 C18.06,24.02 30.69,10.9 46.21,10.9 C61.73,10.9 74.36,24.03 74.36,40.16 L74.36,62.21 Z" fill="#84B0C1"/>
  <path d="M75.327,62.416 Q74.791,64.909 69.15,64.909 Q63.745,64.909 62.43,62.713 L62.291,62.481 L62.291,40.16 Q62.291,33.033 57.555,27.993 Q52.844,22.979 46.21,22.979 Q39.577,22.979 34.865,27.997 Q30.129,33.039 30.129,40.16 L30.129,62.685 L29.769,62.979 Q27.389,64.919 23.2,64.919 Q18.873,64.919 17.279,62.81 L17.081,62.548 L17.081,40.16 Q17.081,27.662 25.609,18.799 Q34.152,9.921 46.21,9.921 Q58.266,9.921 66.811,18.802 Q75.339,27.668 75.339,40.16 L75.339,61.231 L75.582,61.231 Z M73.381,62.033 L73.381,40.16 Q73.381,28.457 65.399,20.16 Q57.433,11.879 46.21,11.879 Q34.985,11.879 27.021,20.156 Q19.039,28.451 19.039,40.16 L19.039,61.856 Q20.146,62.961 23.2,62.961 Q26.363,62.961 28.171,61.73 L28.171,40.16 Q28.171,32.264 33.437,26.656 Q38.73,21.021 46.21,21.021 Q53.692,21.021 58.982,26.652 Q64.249,32.258 64.249,40.16 L64.249,61.895 Q65.193,62.951 69.15,62.951 Q71.904,62.951 73.066,62.236 Q73.307,62.087 73.381,62.033 Z" fill="#84B0C1"/>
  <path d="M33.52,21.56 C28.38,24.62 27.59,26.69 26.16,27.64 C25.1,28.34 23.69,27.78 24.61,25.35 C25.4,23.27 27.3,19.33 32.04,16.3 C40.2,11.08 47.24,11.32 46.86,15.31 C46.54,18.84 39.01,18.3 33.52,21.56 Z" fill="#B9E4EA"/>
  <path d="M76.96,55.95 C75.65,55.57 70.72,63.07 72.58,64.48 C74.72,66.1 77.24,67.67 77.78,67.46 C89.05,63.12 86.09,58.59 76.96,55.95 Z" fill="#E2A610"/>
  <path d="M72.65,27.68 C68.48,30.46 64.87,35.59 65.17,47.03 C65.48,58.85 71.65,63.61 72.62,64.52 C74.59,63.89 75.65,62.58 75.65,62.58 L75.25,40.05 C75.26,37.05 75.13,32.23 72.65,27.68 Z" fill="url(#SVGID_2_)"/>
  <path d="M93.76,20.22 C80.65,20.6 71.72,32.54 71.84,45.66 C71.94,56.04 78.41,62.49 87.54,66.09 L87.43,105.5 C87.43,107.15 88.11,108.72 89.31,109.84 L92.22,112.63 L94.58,115.93 C95.26,116.16 98.19,116.09 98.76,115.75 L103.18,112.13 C104.38,111 105.06,109.43 105.06,107.79 L105.06,104.9 C105.06,103.1 104.3,101.31 102.82,100.28 C101.9,99.64 101.33,98.76 101.33,97.78 C101.33,96.62 102.12,95.6 103.35,94.96 C104.37,94.42 105.07,93.42 105.07,92.27 L105.07,91.88 C105.11,90.34 104.32,89.39 103.44,88.81 C102.07,87.91 101.54,86.57 101.33,85.12 C101.15,83.86 101.87,82.53 102.75,81.63 C104.33,80 105.03,78.61 105.03,76.33 L105.04,68.75 C114.6,65.31 121.44,56.16 121.44,45.41 C121.43,31.29 109.95,19.76 93.76,20.22 Z M103.36,39.88 C103.36,43.6 100.35,46.61 96.63,46.61 C92.91,46.61 89.9,43.6 89.9,39.88 C89.9,36.16 92.91,33.15 96.63,33.15 C100.35,33.15 103.36,36.16 103.36,39.88 Z" fill="#9E740B"/>
  <path d="M92.94,20.22 C79.24,20.22 68.14,31.32 68.14,45.02 C68.14,55.5 74.65,64.46 83.84,68.09 L83.73,105.1 C83.73,106.75 84.41,108.32 85.61,109.44 L91.22,114.64 C92.78,114.21 94.58,115.94 94.58,115.94 L99.48,111.73 C100.68,110.6 101.36,109.03 101.36,107.39 L101.36,104.5 C101.36,102.7 100.6,100.91 99.12,99.88 C98.2,99.24 97.63,98.36 97.63,97.38 C97.63,96.22 98.42,95.2 99.65,94.56 C100.67,94.02 101.37,93.02 101.37,91.87 L101.37,91.48 C101.41,89.94 100.62,88.99 99.74,88.41 C98.37,87.51 97.84,86.17 97.63,84.72 C97.45,83.46 98.17,82.13 99.05,81.23 C100.63,79.6 101.33,78.21 101.33,75.93 L101.34,68.35 C110.9,64.91 117.74,55.76 117.74,45.01 C117.73,31.32 106.63,20.22 92.94,20.22 Z M99.67,39.47 C99.67,43.19 96.66,46.2 92.94,46.2 C89.22,46.2 86.21,43.19 86.21,39.47 C86.21,35.75 89.22,32.74 92.94,32.74 C96.65,32.74 99.67,35.75 99.67,39.47 Z" fill="#FFCA28"/>
  <path d="M91.22,114.64 C91.22,114.64 92.17,114.46 94.58,115.94 L94.22,71.87 C94.15,70.37 91.36,73.98 91.35,75.89 L91.22,114.64 Z" fill="#DBA010"/>
  <path d="M74.22,39.47 C75.3,30.34 82.72,26.76 85.67,25.82 C86.66,25.51 88.67,24.99 89.13,26.71 C89.54,28.23 88.6,29.04 86.99,29.55 C83.06,30.82 77.72,33.6 76.79,40.34 C76.61,41.63 75.91,42.38 75.07,42.15 C74.5,41.99 74.02,41.1 74.22,39.47 Z" fill="#FFF59D"/>
</svg>

<svg viewBox="0 0 128 128" xmlns="http://www.w3.org/2000/svg">
  <g>
    <g>
      <path d="M85.86,62.7h-0.01c-0.12-2.45-2.72-4.74-7.21-6.09c-9.61-2.89-20.27-4.58-32.43-4.68 c-12.15,0.1-22.81,1.79-32.43,4.68c-4.49,1.35-7.07,3.64-7.2,6.09H6.57v0.32c0,0.02,0,0.03,0,0.05v49.71 c0,2.79,3.02,5.8,10.26,7.85c7.48,2.12,17.6,3.49,29.38,3.49s21.9-1.37,29.38-3.49c7.59-2.15,10.39-5.32,10.27-8.25l0,0V62.7z" fill="#E2A610"/>
      <linearGradient id="SVGID_1_" gradientUnits="userSpaceOnUse" x1="89.1768" x2="78.997" y1="84.4293" y2="84.4293">
        <stop offset="0" stop-color="#9E740B"/>
        <stop offset="0.3063" stop-color="#9E740B" stop-opacity="0.963"/>
      </linearGradient>
      <path d="M85.85,62.7c-0.12-2.45-2.72-4.74-7.21-6.09c-9.61-2.89,11.29,9.47-0.86,9.37 c0,0-0.32,25.13,0,38.43c0.21,8.82,8.12,8.72,8.08,7.96V62.7H85.85z" fill="url(#SVGID_1_)"/>
      <line fill="#E2A610" x1="6.57" x2="85.86" y1="63.43" y2="63.43"/>
      <g>
        <path d="M54.11,108.24l-4.49-10.58c2.56-1.24,4.33-3.86,4.33-6.9c0-4.24-3.44-7.67-7.67-7.67 s-7.67,3.44-7.67,7.67c0,2.85,1.56,5.34,3.87,6.66l-4.18,10.89c-0.53,1.38,0.49,2.85,1.96,2.85h11.92 C53.68,111.16,54.7,109.62,54.11,108.24z" fill="#4E342E"/>
        <path d="M53.69,107.26H38.7l-0.4,1.05c-0.53,1.38,0.49,2.85,1.96,2.85h11.92c1.51,0,2.52-1.54,1.93-2.92 L53.69,107.26z" fill="#9E740B"/>
        <path d="M43.16,95.4c0.18-0.52-0.01-1.08-0.45-1.4c-0.6-0.44-1.41-1.22-1.92-2.46 c-1.86-4.48,0.35-6.47,0.35-6.47c-1.56,1.4-2.54,3.43-2.54,5.69c0,2.85,1.56,5.34,3.87,6.66L43.16,95.4z" fill="#9E740B"/>
        <path d="M51.67,85.3c0,0,2.2,4.42-0.32,7.25c-0.86,0.96-1.59,1.47-2.13,1.72 c-0.53,0.25-0.77,0.88-0.52,1.41l0.93,1.96c2.56-1.24,4.33-3.86,4.33-6.9C53.95,87.49,51.67,85.3,51.67,85.3z" fill="#9E740B"/>
      </g>
      <path d="M76.96,55.95c-9.12-2.64-19.22-4.19-30.74-4.28c-11.52,0.09-21.63,1.64-30.74,4.28 c-9.13,2.65-10.04,9.26,2.89,12.8c7.09,1.94,16.69,3.19,27.85,3.19s20.76-1.25,27.85-3.19C87,65.21,86.09,58.59,76.96,55.95z" fill="#FDD835"/>
      <g>
        <path d="M74.37,62.21c0,0-0.37,1.72-5.22,1.72 s-5.88-1.72-5.88-1.72V40.16c0-10.02-7.65-18.16-17.06-18.16s-17.06,8.15-17.06,18.16v22.06c0,0-2.11,1.72-5.95,1.72 s-5.14-1.72-5.14-1.72V40.16c0-16.14,12.63-29.26,28.15-29.26s28.15,13.13,28.15,29.26V62.21z" fill="#84B0C1" stroke="#84B0C1" stroke-width="1.9584" stroke-miterlimit="10"/>
        <path d="M33.52,21.56c-5.14,3.06-5.93,5.13-7.36,6.08c-1.06,0.7-2.47,0.14-1.55-2.29 c0.79-2.08,2.69-6.02,7.43-9.05c8.16-5.22,15.2-4.98,14.82-0.99C46.54,18.84,39.01,18.3,33.52,21.56z" fill="#B9E4EA"/>
      </g>
    </g>
    <path d="M76.96,55.95c-1.31-0.38-6.24,7.12-4.38,8.53c2.14,1.62,4.66,3.19,5.2,2.98 C89.05,63.12,86.09,58.59,76.96,55.95z" fill="#E2A610"/>
    <radialGradient id="SVGID_2_" cx="76.7065" cy="49.0662" gradientTransform="matrix(-0.077 -0.997 0.4971 -0.0384 58.2244 127.4289)" gradientUnits="userSpaceOnUse" r="37.7164">
      <stop offset="0.1561" stop-color="#3D8192"/>
      <stop offset="0.2773" stop-color="#3D8192"/>
    </radialGradient>
    <path d="M72.65,27.68c-4.17,2.78-7.78,7.91-7.48,19.35c0.31,11.82,6.48,16.58,7.45,17.49 c1.97-0.63,3.03-1.94,3.03-1.94l-0.4-22.53C75.26,37.05,75.13,32.23,72.65,27.68z" fill="url(#SVGID_2_)"/>
    <g>
      <path d="M93.76,20.22C80.65,20.6,71.72,32.54,71.84,45.66c0.1,10.38,6.57,16.83,15.7,20.43l-0.11,39.41 c0,1.65,0.68,3.22,1.88,4.34l2.91,2.79l2.36,3.3c0.68,0.23,3.61,0.16,4.18-0.18l4.42-3.62c1.2-1.13,1.88-2.7,1.88-4.34l0-2.89 c0-1.8-0.76-3.59-2.24-4.62c-0.92-0.64-1.49-1.52-1.49-2.5c0-1.16,0.79-2.18,2.02-2.82c1.02-0.54,1.72-1.54,1.72-2.69l0-0.39 c0.04-1.54-0.75-2.49-1.63-3.07c-1.37-0.9-1.9-2.24-2.11-3.69c-0.18-1.26,0.54-2.59,1.42-3.49c1.58-1.63,2.28-3.02,2.28-5.3 l0.01-7.58c9.56-3.44,16.4-12.59,16.4-23.34C121.43,31.29,109.95,19.76,93.76,20.22z M103.36,39.88c0,3.72-3.01,6.73-6.73,6.73 c-3.72,0-6.73-3.01-6.73-6.73c0-3.72,3.01-6.73,6.73-6.73C100.35,33.15,103.36,36.16,103.36,39.88z" fill="#9E740B"/>
      <path d="M92.94,20.22c-13.7,0-24.8,11.1-24.8,24.8c0,10.48,6.51,19.44,15.7,23.07l-0.11,37.01 c0,1.65,0.68,3.22,1.88,4.34l5.61,5.2c1.56-0.43,3.36,1.3,3.36,1.3l4.9-4.21c1.2-1.13,1.88-2.7,1.88-4.34v-2.89 c0-1.8-0.76-3.59-2.24-4.62c-0.92-0.64-1.49-1.52-1.49-2.5c0-1.16,0.79-2.18,2.02-2.82c1.02-0.54,1.72-1.54,1.72-2.69v-0.39 c0.04-1.54-0.75-2.49-1.63-3.07c-1.37-0.9-1.9-2.24-2.11-3.69c-0.18-1.26,0.54-2.59,1.42-3.49c1.58-1.63,2.28-3.02,2.28-5.3 l0.01-7.58c9.56-3.44,16.4-12.59,16.4-23.34C117.73,31.32,106.63,20.22,92.94,20.22z M99.67,39.47c0,3.72-3.01,6.73-6.73,6.73 c-3.72,0-6.73-3.01-6.73-6.73c0-3.72,3.01-6.73,6.73-6.73C96.65,32.74,99.67,35.75,99.67,39.47z" fill="#FFCA28"/>
      <path d="M91.22,114.64c0,0,0.95-0.18,3.36,1.3l-0.36-44.07c-0.07-1.5-2.86,2.11-2.87,4.02L91.22,114.64z" fill="#DBA010"/>
      <path d="M74.22,39.47c1.08-9.13,8.5-12.71,11.45-13.65c0.99-0.31,3-0.83,3.46,0.89 c0.41,1.52-0.53,2.33-2.14,2.84c-3.93,1.27-9.27,4.05-10.2,10.79c-0.18,1.29-0.88,2.04-1.72,1.81 C74.5,41.99,74.02,41.1,74.22,39.47z" fill="#FFF59D"/>
    </g>
  </g>
</svg>
